Adwaita++/mimetypes/symbolic/application-rss+xml-symbolic.svg

<svg height="16" width="16" xmlns="http://www.w3.org/2000/svg">
  <g fill="#474747">
    <path d="m6 12a2 2 0 0 1 -2 2 2 2 0 0 1 -2-2 2 2 0 0 1 2-2 2 2 0 0 1 2 2z"/>
    <path d="m2 6h1.014v1.014h-1.014zm7.014 7.014h.986v.986h-.986zm4 0h.986v.986h-.986zm-11.014-11.014h1.014v1.014h-1.014z"/>
    <path d="m3.014 8.014c2.774 0 5 2.227 5 5h2c0-3.854-3.145-7-7-7z"/>
    <path d="m3.014 4.028a8.972 8.972 0 0 1 8.987 8.986h2c-.001-6.054-4.931-10.986-10.987-10.986z"/>
    <path d="m4 7a1 1 0 0 1 -1 1 1 1 0 0 1 -1-1 1 1 0 0 1 1-1 1 1 0 0 1 1 1zm0-4a1 1 0 0 1 -1 1 1 1 0 0 1 -1-1 1 1 0 0 1 1-1 1 1 0 0 1 1 1zm6 10a1 1 0 0 1 -1 1 1 1 0 0 1 -1-1 1 1 0 0 1 1-1 1 1 0 0 1 1 1zm4 0a1 1 0 0 1 -1 1 1 1 0 0 1 -1-1 1 1 0 0 1 1-1 1 1 0 0 1 1 1z"/>
  </g>
</svg>

<svg xmlns="http://www.w3.org/2000/svg" width="16" height="16">
    <g fill="#474747">
        <path d="M6 12a2 2 0 0 1-2 2 2 2 0 0 1-2-2 2 2 0 0 1 2-2 2 2 0 0 1 2 2z" style="marker:none" color="#000" overflow="visible"/>
        <path d="M2 6h1.014v1.014H2zM9.014 13.014H10V14h-.986zM13.014 13.014H14V14h-.986zM2 2h1.014v1.014H2z"/>
        <path d="M3.014 8.014c2.774 0 5 2.227 5 5h2c0-3.854-3.145-7-7-7z" style="line-height:normal;font-variant-ligatures:normal;font-variant-position:normal;font-variant-caps:normal;font-variant-numeric:normal;font-variant-alternates:normal;font-feature-settings:normal;text-indent:0;text-align:start;text-decoration-line:none;text-decoration-style:solid;text-decoration-color:#000;text-transform:none;text-orientation:mixed;shape-padding:0;isolation:auto;mix-blend-mode:normal;marker:none" color="#000" font-weight="400" font-family="sans-serif" white-space="normal" overflow="visible"/>
        <path d="M3.014 4.028a8.972 8.972 0 0 1 8.987 8.986h2C14 6.96 9.07 2.028 3.014 2.028z" style="line-height:normal;font-variant-ligatures:normal;font-variant-position:normal;font-variant-caps:normal;font-variant-numeric:normal;font-variant-alternates:normal;font-feature-settings:normal;text-indent:0;text-align:start;text-decoration-line:none;text-decoration-style:solid;text-decoration-color:#000;text-transform:none;text-orientation:mixed;shape-padding:0;isolation:auto;mix-blend-mode:normal;marker:none" color="#000" font-weight="400" font-family="sans-serif" white-space="normal" overflow="visible"/>
        <path d="M4 7a1 1 0 0 1-1 1 1 1 0 0 1-1-1 1 1 0 0 1 1-1 1 1 0 0 1 1 1zM4 3a1 1 0 0 1-1 1 1 1 0 0 1-1-1 1 1 0 0 1 1-1 1 1 0 0 1 1 1zM10 13a1 1 0 0 1-1 1 1 1 0 0 1-1-1 1 1 0 0 1 1-1 1 1 0 0 1 1 1zM14 13a1 1 0 0 1-1 1 1 1 0 0 1-1-1 1 1 0 0 1 1-1 1 1 0 0 1 1 1z" style="marker:none" color="#000" overflow="visible"/>
    </g>
</svg>
